X: 7
T:Aziz/Layla
M:4/4
L:1/8
Q:1/8=240
K:C
K:E
|:"E"EB- B=c BA GA|B3/2=c/ BA B/A/G/A/ B z|"F"EA- AB AG =FG|
A3/2B/ AG A/G/=F/G/ Az:|3
|:"C"=c3/2B/ c=d- "D"dc BA|"Bm"B3/2A/ B=c- "C"cB A=G:|
"E"(3A/G/A/ (3B/A/B/ (3=c/B/c/ (3=d/c/d/ |
e3/2=d/ =cB AG =F=G|E8|
